!!!!SEGMENT: pl-cz--iii-370--001-004_krogulski-jozef-wladyslaw--msza-c-credo.krn
!!!cenid: 18xx:941
!!!COM: Krogulski, Józef Władysław
!!!COM-rismID: pe30001797
!!!CDT: 1815/10/04-1842/01/09
!!!CNT: Polish
!!!OPR: Msza C
!!!OTL: Credo
!!!OMV: 004
!!!PDT:
!!!AGN: Sacred; Mass
!!!SMS-siglum: PL-CZ
!!!SMS-shelfmark: III-370
!!!SMS-shelfwork: 001-004 M
!!!SMS-variant:
!!!SMS-altvar:
!!!NIFC-rismSourceID: 300000646
!!!NIFC-rismChildID: 300000646
!!!NIFC-islandoraID: pl-cz:38094
!!!URL-pdf-islandora: https://repozytorium.nifc.pl/islandora/object/pl-cz%3A38094/datastream/PDF/view
!!!URL-scan:
!!!ONB-nifc: UWAGA: części Mszy: Kyrie, Gloria, Andante przed Ewangelią, Credo, Offertorium, Sanctus, Benedictus, Agnus, Na Benedykcyią
!!!AIN: 1 bass 1 organ 2 vox
!!!key: F
**kern	**kern	**dynam	**kern	**dynam	**text	**mod-text	**kern	**dynam	**text	**mod-text	**kern	**dynam	**text	**mod-text
*part4	*part4	*part4	*part3	*part3	*part3	*part3	*part2	*part2	*part2	*part2	*part1	*part1	*part1	*part1
*staff5	*staff4	*	*staff3	*	*staff3	*staff3	*staff2	*	*staff2	*staff2	*staff1	*	*staff1	*staff1
*	*	*	*group1	*	*	*	*group1	*	*	*	*group1	*	*	*
*I"Organ	*	*	*I"Bas	*	*	*	*I"Spiew Drugi	*	*	*	*I"Spiew Pierwszy	*	*	*
*mI"Organo	*	*	*mI"Basso	*	*	*	*mI"Voce II	*	*	*	*mI"Voce I	*	*	*
*I'org	*	*	*I'B	*	*	*	*I'V 2	*	*	*	*I'V 1	*	*	*
*Iorgan	*	*	*Ibass	*	*	*	*Ivox	*	*	*	*Ivox	*	*	*
*ICklav	*	*	*ICvox	*	*	*	*ICvox	*	*	*	*ICvox	*	*	*
*IGacmp	*	*	*IGcoro	*	*	*	*IGcoro	*	*	*	*IGcoro	*	*	*
*clefF4	*clefG2	*	*clefF4	*	*	*	*clefG2	*	*	*	*clefG2	*	*	*
*k[b-]	*k[b-]	*	*k[b-]	*	*	*	*k[b-]	*	*	*	*k[b-]	*	*	*
*F:	*F:	*	*F:	*	*	*	*F:	*	*	*	*F:	*	*	*
*M4/4	*M4/4	*	*M4/4	*	*	*	*M4/4	*	*	*	*M4/4	*	*	*
*met(c)	*met(c)	*	*met(c)	*	*	*	*met(c)	*	*	*	*met(c)	*	*	*
*all\right	*all\right	*	*all\right	*	*	*	*all\right	*	*	*	*all\right	*	*	*
!!!OMD:
!!!OMD-mod: Moderato
=1	=1	=1	=1	=1	=1	=1	=1	=1	=1	=1	=1	=1	=1	=1
*	*2\right	*	*	*	*	*	*	*	*	*	*	*	*	*
!	!LO:MO:mod=!null:null	!	!LO:MO:mod=!null:null	!	!	!	!	!	!	!	!	!	!	!
!	!LO:TX:a:t=No 3	!	!LO:TX:a:t=No 4	!	!	!	!	!	!	!	!	!	!	!
!	!LO:TX:a:Bi:t=Moderato:mod=	!	!LO:TX:a:Bi:t=Moderato:mod=	!LO:DY:a:t=fo	!	!	!LO:TX:a:Bi:t=Moderato:mod=	!LO:DY:a	!	!	!LO:TX:a:Bi:t=Moderato:mod=	!	!	!
!	!	!	!	!	!	!	!	!	!	!	!	!LO:DY:t= :mod=%s	!	!
!	!	!	!	!	!	!	!	!	!	!	!	!LO:MO:mod=!LO&colon;DY&colon;ed=brack	!	!
!	!	!	!	!	!	!	!	!	!	!	!	!null	!	!
[1F [1FF	2cc 2a\	f	4F\	f	Wie-	Wie-	4a/	f	Wie-	Wie-	4cc\	f	Wie-	Wie-
.	.	.	4F\	.	-rzę	-rzę	4a/	.	-rzę	-rzę	4cc\	.	-rzę	-rzę
.	4dd 4b-\	.	4F\	.	w Bo-	w Bo-	4b-/	.	w Bo-	w Bo-	4dd\	.	w Bo-	w Bo-
.	4cc 4a\	.	8F\	.	-ga	-ga	8a/	.	-ga	-ga	8cc\	.	-ga	-ga
.	.	.	8F\	.	ie-	je-	8a/	.	ie-	je-	8cc\	.	ie-	je-
=2	=2	=2	=2	=2	=2	=2	=2	=2	=2	=2	=2	=2	=2	=2
*	*	*	*	*	*	*	*	*	*	*	*2\right	*	*	*
1F_ 1FF_	2ff 2a\	.	2F\	.	-dne-	-dne-	2a/	.	-dne-	-dne-	2ff\	.	-dne-	-dne-
.	4cc 4a\	.	4F\	.	-go	-go,	4a/	.	-go	-go,	4cc\	.	-go	-go,
.	8bnL 8g#X\	.	4r	.	.	.	4r	.	.	.	4r	.	.	.
.	8ccJ 8a\	.	.	.	.	.	.	.	.	.	.	.	.	.
=3	=3	=3	=3	=3	=3	=3	=3	=3	=3	=3	=3	=3	=3	=3
*2\right	*	*	*	*	*	*	*	*	*	*	*	*	*	*
2F] 2FF\]	4dd 4b-X\	.	4F\	.	Stwor-	stwór-	4b-\	.	stwor-	stwór-	4dd\	.	stwor-	stwór-
.	4cc#X 4a\	.	4F\	.	-ce	-cę	4a\	.	-cę	-cę	4cc#\	.	-cę	-cę
2BB-/	4dd 4b-\	.	4BB-/	.	-Nie-	-nie-	(4b-\	.	Nie-	nie-	(4dd\	.	nie-	nie-
.	8ffL 8dd\	.	4BB-/	.	-ba	-ba,	8dd\)	.	.	.	8ff\)	.	.	.
.	8ddJ 8b-\	.	.	.	.	.	8b-\	.	-ba	-ba,	8dd\	.	-ba	-ba,
=4	=4	=4	=4	=4	=4	=4	=4	=4	=4	=4	=4	=4	=4	=4
!	!	!	!	!	!	!	!	!	!	!	!LO:SIC:s=(4.ccn\:v	!	!	!
2C/	4.ccn 4.a\	.	2C/	.	zie-	zie-	(>4.a/	.	zie-	zie-	4.ccn\	.	zie-	zie-
!	!	!	!	!	!	!	!LO:SIC:s=8g/):v	!	!	!	!	!	!	!
!	!	!	!	!	!	!	!	!	!	!	!LO:SIC:s=8b-\):v	!	!	!
.	8b- 8g\	.	.	.	.	.	8g/	.	.	.	8b-\	.	.	.
!	!	!	!	!	!	!	!LO:SIC:s=4f/:v	!	!	!	!	!	!	!
4F\	4a 4f\	.	4F\	.	-mi	-mi,	4f/)	.	-mi	-mi,	4a\	.	-mi	-mi,
!	!	!	!LO:TX:t=P:problem=brak pauzy 4r	!	!	!	!	!	!	!	!	!	!	!
8E\L	4r	.	4ryy	.	.	.	4r	.	.	.	4r	.	.	.
8D\J	.	.	.	.	.	.	.	.	.	.	.	.	.	.
!	!	!	!	!	!	!	!LO:LB:g=original	!	!	!	!	!	!	!
=5	=5	=5	=5	=5	=5	=5	=5	=5	=5	=5	=5	=5	=5	=5
2C/	4g 4e/	.	4C/	.	Wszy-	wszy-	4e/	.	Wszy-	wszy-	4g/	.	Wszy-	wszy-
!	!	!	!LO:LB:g=original	!	!	!	!	!	!	!	!	!	!	!
.	4b- 4g/	.	4C/	.	-stkich	-stkich	4g/	.	-stkich	-stkich	4b-/	.	-stkich	-stkich
2F\	4a 4f/	.	4F\	.	o-	o-	4f/	.	o-	o-	4a/	.	o-	o-
.	8ddL 8b-\	.	8F\	.	-ku	-ku	8b-/	.	-ku	-ku	8dd\	.	-ku	-ku
.	8ccJ 8a\	.	8F\	.	wi-	wi-	8a/	.	wi-	wi-	8cc\	.	wi-	wi-
!	!	!	!	!	!	!	!	!	!	!	!LO:LB:g=original	!	!	!
=6	=6	=6	=6	=6	=6	=6	=6	=6	=6	=6	=6	=6	=6	=6
!	!	!	!	!	!	!	!	!	!	!	!LO:SIC:s=(4.cc\:v	!	!	!
2C/	4.cc 4.a\	.	2C/	.	-do-	-do-	(4.a/	.	-do-	-do-	4.cc\	.	-do-	-do-
!	!	!	!	!	!	!	!	!	!	!	!LO:SIC:s=8b-\):v	!	!	!
.	8b- 8g\	.	.	.	.	.	8g/)	.	.	.	8b-\	.	.	.
2F\	8a 8f\	.	8F\	.	-mych	-mych	8f/	.	-mych	-mych	8a\	.	-mych	-mych
.	8r	.	8r	.	.	.	8r	.	.	.	8r	.	.	.
.	4a 4f/	.	4F\	.	i	i	4f/	.	i	i	4a/	.	i	i
=7	=7	=7	=7	=7	=7	=7	=7	=7	=7	=7	=7	=7	=7	=7
*	*	*	*2\right	*	*	*	*	*	*	*	*	*	*	*
2F\	4a 4f/	.	2F\	.	taj-	taj-	(4f/	.	taj-	taj-	(4a\	.	taj-	taj-
.	8b-L 8g/	.	.	.	.	.	8g/L	.	.	.	8b-\L	.	.	.
.	8ccJ 8a/	.	.	.	.	.	8a/J)	.	.	.	8cc\J)	.	.	.
!LO:LB:g=original	!LO:LB:g=original	!	!	!	!	!	!	!	!	!	!	!	!	!
2BB-/	8eeL 8cc\	.	4BB-/	.	-nych	-nych	8cc\L	.	-nych	-nych	8ee\L	.	-nych	-nych
.	8ddJ 8b-\	.	.	.	.	.	8b-\J	.	.	.	8dd\J	.	.	.
.	8ccL 8a\	.	4BB-/	.	i-	i-	8a/L	.	i-	i-	8cc\L	.	i-	i-
.	8b-J 8g\	.	.	.	.	.	8g/J	.	.	.	8b-\J	.	.	.
=8	=8	=8	=8	=8	=8	=8	=8	=8	=8	=8	=8	=8	=8	=8
1C	2a 2f/	.	2C/	.	-stno-	-stno-	2f/	.	-stno-	-stno-	2a/	.	-stno-	-stno-
.	4g 4e/	.	4C/	.	-sci	-ści.	4e/	.	-śći	-ści.	4g/	.	-sci	-ści.
.	8aL 8f/	.	4r	.	.	.	4r	.	.	.	4r	.	.	.
.	8b-J 8g/	.	.	.	.	.	.	.	.	.	.	.	.	.
=9	=9	=9	=9	=9	=9	=9	=9	=9	=9	=9	=9	=9	=9	=9
[1F [1FF	2cc 2a\	.	4F\	.	Wie-	Wie-	4a/	.	Wie-	Wie-	4cc\	.	Wie-	Wie-
.	.	.	4F\	.	-rzę	-rzę	4a/	.	-rzę	-rzę	4cc\	.	-rze	-rzę
!	!	!	!	!	!	!	!LO:SIC:s=(8b-/L:v	!	!	!	!LO:SIC:s=(8dd\L:v	!	!	!
.	8ddL 8b-\	.	4F\	.	w Bo-	w Bo-	8b-/L	.	w Bo-	w Bo-	8dd\L	.	w Bo-	w Bo-
!	!	!	!	!	!	!	!LO:SIC:s=8a/J):v	!	!	!	!LO:SIC:s=8cc\J):v	!	!	!
.	8cc 8a\	.	.	.	.	.	8a/J	.	.	.	8cc\J	.	.	.
.	8dd 8b-\	.	8F\	.	-ga	-ga	8b-/	.	-ga	-ga	8dd	.	-ga	-ga
.	8eeJ 8g\	.	8F\	.	ie-	je-	8g/	.	ie-	je-	8ee	.	ie-	je-
!	!	!	!LO:LB:g=original	!	!	!	!LO:LB:g=original	!	!	!	!	!	!	!
=10	=10	=10	=10	=10	=10	=10	=10	=10	=10	=10	=10	=10	=10	=10
1F_ 1FF_	2ff 2a\	.	2F\	.	-dne-	-dne-	2a/	.	-dne-	-dne-	2ff\	.	-dne-	-dne-
.	4cc 4a\	.	4F\	.	-go	-go,	4a/	.	-go	-go,	4cc\	.	-go	-go,
.	4cc#X 4a\	.	4r	.	.	.	4r	.	.	.	4r	.	.	.
=11	=11	=11	=11	=11	=11	=11	=11	=11	=11	=11	=11	=11	=11	=11
2F] 2FF/]	4dd 4b-\	.	4F\	.	Stwor-	stwór-	(4b-\	.	Stwor-	stwór-	(4dd\	.	stwor-	stwór-
!	!	!	!	!	!	!	!LO:SIC:s=8a\):v	!	!	!	!	!	!	!
.	8cc#XL 8a\	.	4F\	.	-ce	-cę	8a\	.	.	.	8cc#\)	.	.	.
!	!	!	!	!	!	!	!LO:SIC:s=8b-\:v	!	!	!	!	!	!	!
.	8ddJ 8b-\	.	.	.	.	.	8b-\)	.	-cę	-cę	8dd\	.	-cę	-cę
!	!	!	!	!	!	!	!	!	!	!	!LO:LB:g=original	!	!	!
2BB-/	4ff 4dd\	.	4BB-/	.	Nie-	nie-	(4dd\	.	Nie-	nie-	(4ff\	.	Nie-	nie-
.	8eeL 8cc#\	.	4BB-/	.	-ba	-ba,	8cc\)	.	.	.	8ee\)	.	.	.
.	8ddJ 8b-\	.	.	.	.	.	8b-\	.	-ba	-ba,	8dd\	.	-ba	-ba,
=12	=12	=12	=12	=12	=12	=12	=12	=12	=12	=12	=12	=12	=12	=12
!	!	!	!	!	!	!	!	!	!	!	!LO:SIC:s=(4.cc\:v	!	!	!
2C/	4.cc 4.a\	.	2C/	.	zie-	zie-	(4.a/	.	Zie-	zie-	4.cc\	.	zie-	zie-
!	!	!	!	!	!	!	!	!	!	!	!LO:SIC:s=8b-\):v	!	!	!
.	8b- 8g\	.	.	.	.	.	8g/)	.	.	.	8b-\	.	.	.
8F\L	4a 4f\	.	4F\	.	-mi	-mi,	4f/	.	-mi	-mi,	4a\	.	-mi	-mi,
8A\	.	.	.	.	.	.	.	.	.	.	.	.	.	.
8F\	4r	.	4r	.	.	.	4r	.	.	.	4r	.	.	.
8E\J	.	.	.	.	.	.	.	.	.	.	.	.	.	.
=13	=13	=13	=13	=13	=13	=13	=13	=13	=13	=13	=13	=13	=13	=13
4D\	4a/	.	4D\	.	wszy-	wszy-	4f/	.	Wszy-	wszy-	4a/	.	Wszy-	wszy-
4F\	4dd/	.	4F\	.	-stkich	-stkich	4f/	.	-stkich	-stkich	4dd\	.	-stkich	-stkich
4A\	4cc#X 4e\	.	4A\	.	o-	o-	4e/	.	o-	o-	4cc#\	.	o-	o-
4AA/	8dd 8f\	.	8A\	.	-ku	-ku	8f/	.	-ku	-ku	8dd\	.	-ku	-ku
.	8ee 8g\	.	8A\	.	wi-	wi-	8g/	.	wi-	wi-	8ee\	.	wi-	wi-
=14	=14	=14	=14	=14	=14	=14	=14	=14	=14	=14	=14	=14	=14	=14
1D	4.ff 4.a\	.	2D\	.	-do-	-do-	(4.a/	.	-do-	-do-	(4.ff\	.	-do-	-do-
.	8ee 8g\	.	.	.	.	.	8g/)	.	.	.	8ee\)	.	.	.
.	4dd 4f\	.	8D\	.	-mych	-mych	8f/	.	-mych	-mych	8dd\	.	-mych	-mych
.	.	.	8r	.	.	.	8r	.	.	.	8r	.	.	.
.	4ff 4dd 4a\	.	4D\	.	j	i	4dd\	.	i	i	4ff\	.	i	i
!LO:LB:g=original	!LO:LB:g=original	!	!LO:LB:g=original	!	!	!	!LO:LB:g=original	!	!	!	!	!	!	!
=15	=15	=15	=15	=15	=15	=15	=15	=15	=15	=15	=15	=15	=15	=15
*	*	*	*	*	*	*	*2\right	*	*	*	*	*	*	*
[1G [1GG	2ee 2ccn 2g\	.	2G\	.	tay-	taj-	2cc\	.	tay-	taj-	2ee\	.	tay-	taj-
.	4dd 4bn 4g\	.	4G\	.	-nych	-nych	4bn\	.	-nych	-nych	4dd\	.	-nych	-nych
.	4dd 4b 4f\	.	4G\	.	i-	i-	4b\	.	i-	i-	4dd\	.	i-	i-
=16	=16	=16	=16	=16	=16	=16	=16	=16	=16	=16	=16	=16	=16	=16
!	!LO:SIC:v:n=2:s=2bn	!	!	!	!	!	!LO:SIC:v:s=2bn\	!	!	!	!	!	!	!
2G] 2GG\]	2dd 2b- 2f\	.	2G\	.	-stno-	-stno-	2b-\	.	-stno-	-stno-	2dd\	.	-stno-	-stno-
2C\	4cc 4e/	.	8C/	.	-ści	-ści,	8cc\	.	-sci	-ści,	8cc\	.	-sci	-ści,
.	.	.	8r	.	.	.	8r	.	.	.	8r	.	.	.
!	!	!	!	!LO:DY:a:rj	!	!	!	!LO:DY:a:rj	!	!	!	!LO:DY:b:rj	!	!
.	4cc 4e/	.	4C/	p	i	i	4e/	p	i	i	4cc\	p	i	i
!	!	!	!	!	!	!	!	!	!	!	!LO:LB:g=original	!	!	!
=17	=17	=17	=17	=17	=17	=17	=17	=17	=17	=17	=17	=17	=17	=17
!	!	!LO:DY:rj	!	!	!	!	!	!	!	!	!	!	!	!
[1C [1CC	4b-X 4g/	p	4C/	.	w Sy-	w Sy-	4g/	.	Sy-	w Sy-	4b-/	.	w Sy-	w Sy-
.	4a 4f/	.	4C/	.	-na	-na	4f/	.	-na	-na	4a/	.	-na	-na
.	4g 4e/	.	4C/	.	zro-	zro-	(4e/	.	zro-	zro-	(4g/	.	zro-	zro-
.	8aL 8f/	.	4C/	.	-dzo-	-dzo-	8f/)	.	.	.	8a/)	.	.	.
.	8b-J 8g/	.	.	.	.	.	8g/	.	-dzo-	-dzo-	8b-/	.	-dzo-	-dzo-
=18	=18	=18	=18	=18	=18	=18	=18	=18	=18	=18	=18	=18	=18	=18
1C_ 1CC_	4.cc 4.a\	.	2C/	.	-ne-	-ne-	(4.a/	.	-ne-	-ne-	(4.cc\	.	-ne-	-ne-
.	8dd 8b-\	.	.	.	.	.	8b-/)	.	.	.	8dd\)	.	.	.
.	4cc 4a\	.	8C/	.	-go	-go	8a/	.	-go	-go	8cc\	.	-go	-go
.	.	.	8r	.	.	.	8r	.	.	.	8r	.	.	.
.	4cc 4a\	.	4C/	.	Przed	przed	4a/	.	Przed	przed	4cc\	.	Przed	przed
=19	=19	=19	=19	=19	=19	=19	=19	=19	=19	=19	=19	=19	=19	=19
1C] 1CC]	4b- 4g\	.	2C/	.	wie-	wie-	(4g/	.	wie-	wie-	(4b-/	.	wie-	wie-
.	4a 4f\	.	.	.	.	.	4f/	.	.	.	4a/	.	.	.
.	8gL 8e\	.	4C/	.	-ki	-ki	8e/L	.	.	.	8g/L	.	.	.
.	8a 8f\	.	.	.	.	.	8f/J)	.	.	.	8a/J)	.	.	.
.	8b- 8g\	.	4C/	.	-wszy-	-wszy-	8g/	.	-ki	-ki	8b-\	.	-ki	-ki
.	8ddJ 8b-\	.	.	.	.	.	8b-/	.	wszy-	wszy-	8dd\	.	wszy-	wszy-
!LO:LB:g=original	!LO:LB:g=original	!	!LO:LB:g=original	!	!	!	!LO:LB:g=original	!	!	!	!	!	!	!
=20	=20	=20	=20	=20	=20	=20	=20	=20	=20	=20	=20	=20	=20	=20
*	*^	*	*	*	*	*	*	*	*	*	*	*	*	*
!	!	!	!	!	!	!	!	!	!	!	!	!LO:SIC:s=(4.cc\:v	!	!	!
2C 2CC/	4.cc 4.a/	4r	.	2C/	.	-stkie-	-stkie-	(4.a/	.	-stkie-	-stkie-	4.cc\	.	-stkie-	-stkie-
.	.	4e\	.	.	.	.	.	.	.	.	.	.	.	.	.
!	!	!	!	!	!	!	!	!	!	!	!	!LO:SIC:s=8b-\):v	!	!	!
.	8b- 8g/	.	.	.	.	.	.	8g/)	.	.	.	8b-\	.	.	.
4F 4FF\	4a 4f/	2ryy	.	8F\	.	-mi	-mi,	8f/	.	-mi	-mi,	8a\	.	-mi	-mi,
.	.	.	.	8r	.	.	.	8r	.	.	.	8r	.	.	.
!	!	!	!LO:DY:rj	!	!LO:DY:rj	!	!	!	!	!	!	!	!	!	!
!	!	!	!	!	!	!	!	!	!LO:DY:t= :mod=%s	!	!	!	!	!	!
!	!	!	!	!	!	!	!	!	!LO:MO:mod=!LO&colon;DY&colon;ed=brack	!	!	!	!	!	!
!	!	!	!	!	!	!	!	!	!	!	!	!	!LO:DY:t= :mod=%s	!	!
!	!	!	!	!	!	!	!	!	!	!	!	!	!LO:MO:mod=!LO&colon;DY&colon;ed=brack	!	!
!	!	!	!	!	!	!	!	!	!null	!	!	!	!null	!	!
4F\	4a 4f/	.	f	4F\	f	Je-	Je-	4f/	f	Je-	Je-	4a\	f	Je-	Je-
=21	=21	=21	=21	=21	=21	=21	=21	=21	=21	=21	=21	=21	=21	=21	=21
4F\	4a/	2f\	.	4F\	.	-zu-	-zu-	4f/	.	-zu-	-zu-	4a\	.	-zu-	-zu-
4D\	4dd/	.	.	4D\	.	sa	sa,	4f/	.	sa	sa,	4dd\	.	sa	sa,
!	!	!	!	!LO:SIC:s=(8A\L:v	!	!	!	!	!	!	!	!	!	!	!
8A\L	4cc#X 4e\	2ryy	.	8A\L	.	z Bo-	Bo-	(4e/	.	Bo-	Bo-	(4cc#\	.	Bo-	Bo-
8G\	.	.	.	8G\	.	.	.	.	.	.	.	.	.	.	.
!	!	!	!	!LO:SIC:s=8F\J):v	!	!	!	!	!	!	!	!	!	!	!
8F\	8ddL 8f\	.	.	8F\J	.	.	.	8f/)	.	.	.	8dd\)	.	.	.
8E\J	8eeJ 8g\	.	.	8E\	.	-ga	-ga	8g/	.	-ga	-ga	8ee\	.	-ga	-ga
*	*v	*v	*	*	*	*	*	*	*	*	*	*	*	*	*
!	!	!	!	!	!	!	!	!	!	!	!LO:LB:g=original	!	!	!
=22	=22	=22	=22	=22	=22	=22	=22	=22	=22	=22	=22	=22	=22	=22
!	!	!	!	!	!	!	!	!	!	!	!LO:SIC:s=(4.ff\:v	!	!	!
2.D\	4.ff 4.a\	.	2D\	.	z Bo-	z Bo-	(4.a/	.	z Bo-	z Bo-	4.ff\	.	z Bo-	z Bo-
!	!	!	!	!	!	!	!	!	!	!	!LO:SIC:s=8ee\):v	!	!	!
.	8ee 8g\	.	.	.	.	.	8g/)	.	.	.	8ee\	.	.	.
.	4dd 4f\	.	8D\	.	-ga	-ga	8f/	.	-ga	-ga	8dd\	.	-ga	-ga
.	.	.	8r	.	.	.	8r	.	.	.	8r	.	.	.
4BB-/	4ff 4dd\	.	4BB-/	.	J	i	4dd\	.	J	i	4ff\	.	i	i
=23	=23	=23	=23	=23	=23	=23	=23	=23	=23	=23	=23	=23	=23	=23
!	!	!	!	!	!	!	!LO:TX:t=P:problem=mixed slur	!	!	!	!	!	!	!
4AA/	4ff 4cc\	.	(4AA/	.	swia-	świa-	(4cc\	.	swia-	świa-	(4ff\	.	swia-	świa-
4BB-/	4dd 4b-\	.	4BB-/)	.	.	.	4b-\	.	.	.	4dd\	.	.	.
[>2C/	8ccL 8a\	.	4C/	.	-tło	-tło	8a/L	.	.	.	8cc\L	.	.	.
.	8b- 8g\	.	.	.	.	.	8g/J)	.	.	.	8b-\J)	.	.	.
.	8a 8f\	.	4C/	.	z swia-	z świa-	8f/	.	-tło	-tło	8a/	.	-tło	-tło
!	!	!	!	!	!	!	!LO:MO:mod=!null:null	!	!	!	!	!	!	!
!	!	!	!	!	!	!	!LO:N:vis=8	!	!	!	!	!	!	!
.	8gJ 8e\	.	.	.	.	.	16r	.	.	.	8g/	.	z swia-	z świa-
!	!	!	!	!	!	!	!LO:MO:mod=!null:null	!	!	!	!	!	!	!
!	!	!	!	!	!	!	!LO:N:vis=8	!	!	!	!	!	!	!
.	.	.	.	.	.	.	16e/	.	z swia-	z świa-	.	.	.	.
=24	=24	=24	=24	=24	=24	=24	=24	=24	=24	=24	=24	=24	=24	=24
2C/]	2b- 2g 2e/	.	2C/	.	-tło-	-tło-	2g/	.	-tło-	-tło-	2b-\	.	-tło-	-tło-
4F\	4a 4f/	.	8F\	.	-śći	-ści,	8f/	.	-sci	-ści,	8a/	.	-sci	-ści,
.	.	.	8r	.	.	.	8r	.	.	.	8r	.	.	.
!	!	!	!LO:LB:g=original	!	!	!	!	!	!	!	!	!	!	!
4F\	4a 4f/	.	4F\	.	Je-	Je-	4f/	.	Je-	Je-	4a/	.	Je-	Je-
!	!	!	!	!	!	!	!LO:LB:g=original	!	!	!	!	!	!	!
=25	=25	=25	=25	=25	=25	=25	=25	=25	=25	=25	=25	=25	=25	=25
*	*^	*	*	*	*	*	*	*	*	*	*	*	*	*
4F\	4a/	2f\	.	4F\	.	-zu-	-zu-	4f/	.	-zu-	-zu-	4a/	.	-su-	-zu-
4D\	4dd/	.	.	4D\	.	-sa	-sa,	4f/	.	-sa	-sa,	4dd\	.	-sa	-sa,
!	!	!	!	!LO:SIC:s=(8A\L:v	!	!	!	!	!	!	!	!	!	!	!
8A\L	4cc#X 4e\	2ryy	.	8A\L	.	Bo-	Bo-	(4e/	.	Bo-	Bo-	(4cc#\	.	Bo-	Bo-
8G\	.	.	.	8G\	.	.	.	.	.	.	.	.	.	.	.
!	!	!	!	!LO:SIC:s=8F\J):v	!	!	!	!	!	!	!	!	!	!	!
8F\	8ddL 8f\	.	.	8F\J	.	.	.	8f/)	.	.	.	8dd\)	.	.	.
8E\J	8eeJ 8g\	.	.	8E\	.	-ga	-ga	8g/	.	-ga	-ga	8ee\	.	-ga	-ga
*	*v	*v	*	*	*	*	*	*	*	*	*	*	*	*	*
=26	=26	=26	=26	=26	=26	=26	=26	=26	=26	=26	=26	=26	=26	=26
2.D\	4.ff 4.a\	.	2D\	.	z Bo-	z Bo-	(4.a/	.	z Bo-	z Bo-	(4.ff\	.	z Bo-	z Bo-
.	8ee 8g\	.	.	.	.	.	8g/)	.	.	.	8ee\)	.	.	.
.	4dd 4f\	.	8D\	.	-ga	-ga	8f/	.	-ga	-ga	8dd\	.	-ga	-ga
.	.	.	8r	.	.	.	8r	.	.	.	8r	.	.	.
4BB-/	4ff 4dd\	.	4BB-/	.	J	i	4dd\	.	J	i	4ff\	.	i	i
!LO:LB:g=original	!LO:LB:g=original	!	!	!	!	!	!	!	!	!	!LO:LB:g=original	!	!	!
=27	=27	=27	=27	=27	=27	=27	=27	=27	=27	=27	=27	=27	=27	=27
!	!	!	!	!	!	!	!LO:TX:t=P:problem=mixed slur	!	!	!	!	!	!	!
1ryy	4ff 4cc\	.	(4AA/	.	swia-	świa-	(4cc\	.	swia-	świa-	(4ff\	.	swia-	świa-
.	4dd 4b-\	.	4BB-/)	.	.	.	4b-\	.	.	.	4dd\	.	.	.
.	8ccL 8a\	.	4C/	.	-tło	-tło	8a/L	.	.	.	8cc\L	.	.	.
.	8b- 8g\	.	.	.	.	.	8g/J)	.	.	.	8b-\J)	.	.	.
.	8a 8f\	.	4C/	.	z_swia-	z świa-	8f/	.	-tło	-tło	8a/	.	-tło	-tło
.	8gJ 8e\	.	.	.	.	.	8e/	.	z swia-	z świa-	8g/	.	z swia-	z świa-
=28	=28	=28	=28	=28	=28	=28	=28	=28	=28	=28	=28	=28	=28	=28
2C 2CC/	2g 2e 2B-/	.	2.C/	.	-tło-	-tło-	2e/	.	-tło-	-tło-	2g/	.	-tło-	-tło-
4F 4FF/	4f 4A/	.	.	.	.	.	4f/	.	-sci	-ści.	4f/	.	-sci	-ści.
4r	4r	.	4F\	.	-sci	-ści.	4r	.	.	.	4r	.	.	.
=29	=29	=29	=29	=29	=29	=29	=29	=29	=29	=29	=29	=29	=29	=29
2F 2FF/	4.cc 4.a\	.	2F\	.	A-	A-	(4.a/	.	A-	A-	(4.cc\	.	A-	A-
.	8dd 8b-\	.	.	.	.	.	8b-/)	.	.	.	8dd\)	.	.	.
4F 4FF/	4cc 4a\	.	4F\	.	-me[n]	-me[n],	4a/	.	-me[n]	-me[n],	4cc	.	-men	-men,
4r	4r	.	4r	.	.	.	4r	.	.	.	4r	.	.	.
=30	=30	=30	=30	=30	=30	=30	=30	=30	=30	=30	=30	=30	=30	=30
!	!	!	!	!	!	!	!	!	!	!	!LO:SIC:s=(4b-\:v	!	!	!
4BB-/	4b- 4d/	.	(4BB-/	.	A-	a-	(4d/	.	A-	a-	4b-\	.	A-	a-
!	!	!	!	!	!	!	!	!	!	!	!LO:SIC:s=4g/):v	!	!	!
4C/	4g 4e/	.	4C/)	.	.	.	4e/)	.	.	.	4g/	.	.	.
4F\	4f/	.	4F/	.	-men	-men.	4f/	.	-[me]n	-[me]n.	4f/	.	-[me]n	-[me]n.
4r	4r	.	4r	.	.	.	4r	.	.	.	4r	.	.	.
==	==	==	==	==	==	==	==	==	==	==	==	==	==	==
*-	*-	*-	*-	*-	*-	*-	*-	*-	*-	*-	*-	*-	*-	*-
!!!system-decoration: [(g1)]{(s4,s5)}
!!!RDF**kern: > = above
!!!RDF**kern: < = below
!!!filter-modern: tie -s | humtr -p | sic -sq | shed -e "s/LO:DY:(a|b|rj)/LO:dy:$1/L" | shed -e "s/TX(.*):t=P:/tx$1:t=P:/LG" | modori -m | autostem -r | shed -e "s/yy//" | shed -k -e "s/\(y([^y])/($1/" | shed -e "s/-//B" | shed -e "s/^(\d+[\/\\]right)/$1yy/I; s/^(\d+[\/\\]left)/$1yy/I" | shed -e "s/^(X?)rep$/$1REP/I" | shed -k -e "s/[<>]//g" | shed -e "s/^custos:/Xcustos:/I" | shed -k -e "s/:TUP:/:tup:/L" | rid -lid
!!!ENC: Tomasz Grochalski
!!!END: 2020-08-29
!!!ENC: Andrzej Kubiczek
!!!END: 2021-11-08
!!!EED-modern: Antoni Szymański
!!!END-modern: 2022-07-05
!!!YEC: Copyright 2022 Narodowy Instytut Fryderyka Chopina (https://polishscores.org)
!!!YEM: License CC-BY-4.0 (https://creativecommons.org/licenses/by/4.0)
